!!!COM: Music21
!!!OTL: march_Kelsen-Side
!!!OMV: march_Kelsen-Side
**kern
*clefG2
*k[f#]
*G:
*M4/4
=1
4g
8bL
8gJ
4a
8bL
8ccJ
=
4dd
4gg
8ff#L
8eeJ
8ddL
8bJ
=
8ccL
8bJ
8aL
8f#J
4g
8gL
8f#J
=
2.g
4r
=
4.aa
8ff#
4dd
8eeL
8ff#J
=
4gg
4aa
8bbL
8aaJ
8ggL
8ddJ
=
4cc
4b
8ccL
8ddJ
8eeL
8ccJ
=
2.a
4r
=
4.aa
8ff#
4dd
8eeL
8ff#J
=
4gg
4aa
8bbL
8aaJ
8ggL
8ddJ
=
4cc
4b
8ccL
8ddJ
8eeL
8ccJ
=
2.a
4dd
=
4g
8bL
8gJ
4a
8bL
8ccJ
=
4dd
4gg
8ff#L
8eeJ
8ddL
8bJ
=
8ccL
8bJ
8aL
8f#J
4g
8gL
8f#J
=
2.g
4r
=||
*-
